X:1
T:Sonata for Two Violins in G Major
T:Sonata for Two Violins in G Major
T:Op. 3, No. 1
T:Jean-Marie Leclair
C:Jean-Marie Leclair
%%score [ ( 1 2 ) ( 3 4 ) ]
L:1/8
Q:1/4=100
M:4/4
K:G
V:1 treble nm="Violin"
V:2 treble 
V:3 treble nm="Violin"
V:4 treble 
V:1
"^Allegro" dFGe dFGg- | gf/g/ ac TBA G2 | G,A,B,C G,A,B,G, | CDEC D/D/F/E/ D/E/F/D/ | %4
 A/A/^c/B/ A/B/c/A/ d/D/F/E/ D/E/F/D/ | A/A/^c/B/ A/B/c/A/ d/c/d/e/ d/c/B/A/ | %6
 G/F/E/F/ ^G/A/B/G/ Aa b/g/Tg | a/f/Tf g/e/Te f/d/Td b/g/Tg | a/f/Tf g/e/Te f/e/d/^c/ B/A/G/F/ | %9
 f/e/d/^c/ B/A/G/F/ d/c/B/A/ G/F/E/D/ | d/^c/B/A/ G/F/E/D/ d2 z z/ F/ | %11
 G2 A2 D(B/G/) (A/F/)(G/E/) | (F/D/)(B/G/) (A/F/)(G/E/) (F/D/)(d/B/) (^c/A/)(B/G/) | %13
 (A/F/)(G/E/) (F/D/)(E/^C/) DGFE | DGFE DBAG | F/A/G/B/ AA, D4 :: a^cdb acdd'- | %17
 d'^c'/d'/ e'g Tfe d2 | DEFG DEFD | GABG AAA,e | %20
 (e/^c/)(e/c/) (a/c/)(e/c/) (f/d/)(f/d/) (f/d/)(f/d/) | %21
 (e/^c/)(e/c/) (a/c/)(e/c/) (f/d/)(f/d/) (f/d/)(f/d/) | %22
 (f/^d/)(f/d/) (b/d/)(f/d/) (g/e/)(g/e/) (g/e/)(g/e/) | %23
 (f/^d/)(f/d/) (b/d/)(f/d/) g/e/g/a/ b/=d/c/B/ | c/A/f/g/ a/c/B/A/ B/G/e/f/ g/B/A/G/ | %25
 A/F/^d/e/ f/A/G/F/ GTE- E/F/G/E/ | BTE- E/F/G/E/ cTE- E/F/G/E/ | ^dTE- E/F/G/E/ eE z B | %28
 (e/B/)(c/A/) (B/G/)(A/F/) GE z B | (e/B/)(c/A/) (B/G/)(A/F/) Ge/d/ c/B/A/G/ | FGTF>E E3 E/F/ | %31
 G B2 d2 B2 G- | G T=F2 E/D/ EC/D/ E/F/G/E/ | ^C/A/^G/A/ C/A/B,/A/ A,/A/G/A/ A,/A/G/A/ | %34
 A,/A/B,/A/ ^C/A/A,/A/ D/C/D/E/ Fd- | d f2 a2 f2 d- | d T=c2 B/A/ BG- G/A/B/c/ | dFGe dFGg- | %38
 gf/g/ ac TBA G2 | G,A,B,C G,A,B,G, | CDEC DCB,A, | G,C D2 GDG,g | Te2 dg Tc2 Bg | %43
 Te2 dg Tc2 Bg/f/ | e/d/c/B/ A/G/F/E/ D2 c2 | (c/B/)(A/G/) (B/A/)(G/F/) GDG,B, | %46
 C/G/F/G/ B,/G/F/G/ A,/G/F/G/ G,/G/F/G/ | C/G/F/G/ B,/G/F/G/ A,/G/F/G/ G,B, | C2 C2 CA/G/ F/E/D | %49
 GC D2 G,4 :|[M:6/8][Q:1/4=80]"^Allegro ma poco" (B2 A) (B2 c) | d3 e3 | (dcB) (cBA) | %53
 (B2 A) (G2 D) | (B2 A) (B2 c) | d3 e3 | (dcB) (cBA) |1 G6 :|2 G3- G2 d |: (e2 d) (ege) | %60
 (d2 d) (dgd) | (e2 e) (d2 e) | (d2 c) (B2 d) | (e2 d) (ege) | (d2 d) d2 g | abc' d'2 b | %66
 Tb2 a a2 a | bga bag | a2 f f2 a | bga bag | a2 f f2 a | b2 a g2 f | e2 f g2 f | e2 f g2 f | %74
 e2 a (=cB).g | (BA).f (AG).e | (GF).d (FE).^c | dgf Te2 d | d3- d/(g/f/e/d/c/) | (B2 A) (B2 c) | %80
 d3 e3 | (dcB) (cBA) | (B2 A) (G2 D) | (B2 A) (B2 c) | d3 e3 | (dcB) (cBA) | G3- Gba | gdc BGg | %88
{f} Te3 z c'b | aag faf |{e} T^d3 z2 B | eBe fBf | gfe{a} T^g3 | a2 e T^a3 | b3- b2 b | %95
 e'2 b b2 a | Tg2 f e2 B | (c2 B) (cec) | (B2 B) (B2 B) | (c2 B) (cec) | (B2 B) (B2 B) | %101
 (^d2 d) (d2 e) | (A2 A) (A2 c) | (BAG) TF2 E | (E2 E) E2 g | (gdB) (gdB) | (gec) (gec) | %107
 (gdB) (gdB) | ged cED | E3 E3 | F3 F3 | E3 E3 | F2 F F2 d' | (d'af) (d'af) | (d'bg) (d'bg) | %115
 (d'af) (d'af) | x3 b2 a | g2 a g2 =f | e2 =f e2 d | c2 d c2 B | A2 z D3 | (B2 A) (B2 c) | d3 e3 | %123
 (dcB) (cBA) | (B2 A) (G2 D) | (B2 A) (B2 c) | d3 e3 | (dcB) (cBA) |1 G3- G2 d :|2 G6 |] %130
[M:3/8][Q:1/4=120]"^Allegro" ddd | d/c/B/c/d/e/ | ddd | d/e/f/g/a/f/ | ddd | d/e/f/g/a/b/ | %136
 c'{c'} Tb2 | a/g/f/e/d | G/D/B,/G,/B,/D/ | G2 z | G/D/B,/G,/D/G/ | F2 z | F/D/F/A/d/F/ | G2 G | %144
 FGG, | Dd/e/f/g/ | aaa | a/B/^c/d/e/f/ | ggg | g/A/B/=c/d/e/ | fff | f/G/A/B/^c/d/ | %152
 e/f/g/e/f/d/ | T^c2 a | ba z | Tgf z | ba z | Tgf z | Ted z | g>aTf- | f/e<Ted/ | d2 ^c | %162
 d/f/d/f/^c/e/ | B/d/B/d/A/^c/ | d/f/d/f/^c/e/ | B/d/B/d/A/^c/ | G/B/G/B/F/A/ | E^CD | GAA, | D3 :: %170
 AAA | A/G/F/G/A/B/ | AAA | A/B/^c/d/e/c/ | AAA | A/B/^c/d/e/f/ | g{g} Tf2 | e/d/^c/B/A | %178
 D/F/A/d/A/F/ | D2 z | D/F/A/d/F/D/ | ^C2 z | ^C/A,/C/E/A/C/ | D2 d | ^cdD | A A,2 | aaa | %187
 a/B/^d/e/f/g/ | aTgf | Tgf/g/e | ggg | g/A/^c/d/e/f/ | gTfe | Tfe/f/d | fff | f/G/A/B/^c/d/ | %196
 eee | e/F/^G/^A/B/^c/ | ddd | d/^c/B/c/d/B/ | g/f/e/d/^c/B/ | T^A2 z | eee | e/f/g/^a/b/^c'/ | %204
 eee | e/f/g/^a/b/^c'/ | eee | Td>^cB | ^cTc>B | B3 | ddd | d/c/B/c/d/e/ | ddd | d/e/f/g/a/f/ | %214
 ddd | d/e/f/g/a/b/ | c'{c'} Tb2 | a/g/f/e/d | d'd'd' | d'/e/f/g/a/b/ | c'c'c' | c'/d/e/f/g/a/ | %222
 bbb | b/c/d/e/f/g/ | a{a} Tg2 | (D/A/)(f/A/).D/.A/ | (D/B/)(g/B/).D/.B/ | (D/c/)(a/c/).D/.c/ | %228
 (D/B/)(g/B/).D/.B/ | [Af]2 z | G2 z | D2 z | G,2 z | D2 d | ed z | TcB z | ed z | TcB z | TAG z | %239
 c>dTB- | B/c<TAG/ | G2 F | G/B/G/B/F/A/ | E/G/E/G/D/F/ | G/B/G/B/F/A/ | E/G/E/G/D/F/ | %246
 C/E/C/E/B,/D/ | A,FG | CDD | G,3 :| %250
V:2
 x8 | x8 | x8 | x8 | x8 | x8 | x8 | x8 | x8 | x8 | x8 | x8 | x8 | x8 | x8 | x8 :: x8 | x8 | x8 | %19
 x8 | x8 | x8 | x8 | x8 | x8 | x8 | x8 | x8 | x8 | x8 | x8 | x8 | x8 | x8 | x8 | x8 | x8 | x8 | %38
 x8 | x8 | x8 | x8 | x8 | x8 | x8 | x8 | x8 | x8 | x8 | x8 :|[M:6/8] D3 D3 | D3 [CG]3 | D3 D3 | %53
 D3 G,3 | D3 D3 | D3 [CG]3 | D3 D3 |1 G,6 :|2 G,3- G,2 G |: G3 G3 | G3 G3 | G2 G G2 c | %62
 B2 A G,2 G | G3 G3 | G2 G G2 z | x6 | x3 x2 f | (gef) (gfe) | f2 D D2 f | (gef) (gfe) | %70
 f2 D D2 f | (g2 f) (e2 d) | (^c2 d) (e2 d) | (^c2 d) (e2 d) | ^c2 x x3 | x6 | x6 | x3 A2 z | %78
 D3- D/ x/ x2 | D3 D3 | D3 [CG]3 | D3 D3 | D3 G,3 | D3 D3 | D3 [CG]3 | D3 D3 | x6 | x6 | x6 | x6 | %90
 x6 | x6 | x6 | x6 | x6 | x6 | x3 x2 E | E2 E E3 | E2 E E2 E | E3 E3 | E2 E E2 E | E2 E E2 E | %102
 ^D2 D D2 z | E z z B,2 z | G,2 G, G,2 x | x6 | x6 | x6 | x6 | (^C2 A,) (C2 A,) | (D2 A,) (D2 A,) | %111
 (^C2 A,) (C2 A,) | D2 D D2 x | x6 | x6 | x6 | d'ba (g2 f) | (e2 f) (e2 d) | (c2 d) (c2 B) | %119
 (A2 B) (A2 G) | (F2 E) D3 | D3 D3 | D3 [CG]3 | D3 D3 | D3 G,3 | D3 D3 | D3 [CG]3 | D3 D3 |1 %128
 G,3- G,2 G :|2 G,6 |][M:3/8] x3 | x3 | x3 | x3 | x3 | x3 | xxTx | x3 | x3 | x3 | x3 | x3 | x3 | %143
 x3 | x3 | x3 | x3 | x3 | x3 | x3 | x3 | x3 | x3 | x3 | x3 | x3 | x3 | x3 | x3 | x3 | x3 | x3 | %162
 x3 | x3 | x3 | x3 | x3 | x3 | x3 | D3 :: x3 | x3 | x3 | x3 | x3 | x3 | xxTx | x3 | x3 | x3 | x3 | %181
 x3 | x3 | x3 | x3 | x3 | x3 | x3 | x3 | x3 | x3 | x3 | x3 | x3 | x3 | x3 | x3 | x3 | x3 | x3 | %200
 x3 | x3 | x3 | x3 | x3 | x3 | x3 | x3 | x3 | x3 | x3 | x3 | x3 | x3 | x3 | x3 | xxTx | x3 | x3 | %219
 x3 | x3 | x3 | x3 | x3 | xxTx | x3 | x3 | x3 | x3 | D2 x | x3 | x3 | x3 | x3 | x3 | x3 | x3 | x3 | %238
 x3 | x3 | x3 | x3 | x3 | x3 | x3 | x3 | x3 | x3 | x3 | x3 :| %250
V:3
 G,A,B,C G,A,B,C | B,/B/A/G/ FD GD G,2 | dFGe dFGd- | dc/B/ cB TBAAd | (d2 ^c)g (g2 f)d | %5
 (d2 ^c)g f/e/f/g/ a2- | ag/f/ ed ^cFGe | FdE^c DFGe | FdE^c d/c/B/A/ G/F/E/D/ | %9
 d/^c/B/A/ G/F/E/D/ f/e/d/c/ B/A/G/F/ | f/e/d/^c/ B/A/G/F/ f2 z z/ F/ | G2 A2 DGFE | DGFE DBAG | %13
 (F/A/)(G/B/) AA, D(B/G/) (A/F/)(G/E/) | (F/D/)(B/G/) (A/F/)(G/E/) (F/D/)(d/B/) (^c/A/)(B/G/) | %15
 (A/F/)(G/E/) (F/D/)(E/^C/) D4 :: DEFG DEFG | F/f/e/d/ ^cA dA D2 | a^cdb acda- | ag/f/ gf Tfee^c | %20
 (^c/A/)(c/A/) (c/A/)(c/A/) (d/A/)(d/A/) (d/A/)(d/A/) | %21
 (^c/A/)(c/A/) (c/A/)(c/A/) (d/A/)(d/A/) (d/A/)(d/A/) | %22
 (^d/B/)(d/B/) (d/B/)(d/B/) (e/B/)(e/B/) (e/B/)(e/B/) | (^d/B/)(d/B/) (d/B/)(d/B/) eBgG | %24
 AAfF GGeE | FFBB, E2 z2 | .G,/(E/4F/4G/).E/ G,E .A,/(E/4F/4G/).E/ A,E | %27
 .B,/(E/4F/4G/).E/ B,E .C/(E/4F/4G/).E/ G,2 | z2 z B (e/B/)(c/A/) (B/G/)(A/F/) | %29
 GE z B e/d/c/B/ A/G/F/E/ | ^DEBB, E/B/^c/^d/ e/E/=D/C/ | B,/G/F/G/ G,/G/F/G/ G,/G/F/G/ G,/G/F/G/ | %32
 B,/G/A,/G/ B,/G/G,/G/ C2 z E- | E A2 ^c2 e2 c- | c A2 G F/E/F/G/ A/G/F/E/ | %35
 D/d/^c/d/ D/d/c/d/ D/d/c/d/ D/d/c/d/ | F/d/E/d/ F/d/D/d/ G/G/F/E/ D/C/B,/A,/ | G,A,B,C G,A,B,C | %38
 B,/B/A/G/ FD GD G,2 | dFGe dFGd- | dc/B/ AG Fedc | z ggf [DBg]2 z B, | %42
 C/G/F/G/ B,/G/F/G/ A,/G/F/G/ G,/G/F/G/ | C/G/F/G/ B,/G/F/G/ A,/G/F/G/ G,B, | C2 C2 CA/G/ F/E/D | %45
 GC D2 G,2 z g | Te2 dg Tc2 Bg | Te2 dg Tc2 Bg/f/ | e/d/c/B/ A/G/F/E/ D2 c2 | %49
 (c/B/)(A/G/) (B/A/)(G/F/) G4 :|[M:6/8] (G2 D) (G2 A) | (BAG) (cBA) | (BAG) (AGF) | (G2 D) D3 | %54
 (G2 D) (G2 A) | (BAG) (cBA) | (BAG) (AGF) |1 G2 D D3 :|2 G2 D D2 B |: (c2 B) (cec) | (cBA) BBG | %61
 cgc (B2 c) | (G2 D) (D2 B) | (c2 B) (cec) | (cBA) (BAG) | FGA BFG | (D2 D) (D2 D) | %67
 (D2 D) (D2 D) | (D2 D) (D2 D) | (D2 D) (D2 D) | (D2 D) (D2 D) | (G2 D) (^C2 D) | (A2 A) (A2 A) | %73
 (A2 A) (A2 A) | (A2 F) (G2 E) | (F2 D) (E2 ^C) | (D2 B,) (^C2 A,) | DAd T^c2 d | %78
 d3- d/(e/d/c/B/A/) | (G2 D) (G2 A) | (BAG) (cBA) | (BAG) (AGF) | (G2 D) D3 | (G2 D) (G2 A) | %84
 (BAG) (cBA) | (BAG) (AGF) | G3 z2 z | z ba gBG | ccB AAG | FAB c2 A | BfB AfA | G2 e ^d2 B | %92
 e3 =d3 | ^c3 f2 e | ^dd^c Bba | g2 G A2 B | (E2 E) (E2 E) | (A,2 A,) (A,2 A,) | (E2 E) (G2 E) | %99
 (A,2 A,) (A,2 A,) | (E2 E) (G2 E) | (A2 A) (A2 G) | (F2 F) (F2 A) | (GFE) T^D2 E | EEF (G2 E) | %105
 (D2 D) (D2 D) | (E2 E) (E2 E) | (D2 D) (D2 D) | (E2 E) E2 a | (ae^c) (aec) | (afd) (afd) | %111
 (ae^c) (aec) | afe d2 A | A2 A A2 A | B2 B B2 B | A2 A A2 A | (G2 D) G,2 B | c3 z2 G | %118
 (C2 C) (C2 C) | (C2 G) (F2 G) | DDC B,A,F | (G2 D) (G2 A) | (BAG) (cBA) | (BAG) (AGF) | %124
 (G2 D) D2 D | (G2 D) (G2 A) | (BAG) (cBA) | (BAG) (AGF) |1 G2 D D2 B :|2 G6 |] %130
[M:3/8] G/D/B,/G,/B,/D/ | G2 z | G/D/B,/G,/D/G/ | F2 z | F/D/F/A/d/F/ | G2 G | FGG, | D2 z | ddd | %139
 d/c/B/c/d/e/ | ddd | d/e/f/g/a/f/ | ddd | d/e/f/g/a/b/ | c'{c'} Tb2 | a/g/f/e/d/e/ | %146
 f/g/f/e/d/^c/ | B2 z | e/f/e/d/^c/B/ | A2 z | d/e/d/^c/B/A/ | G2 z | GEG | A2 ^c | d/f/d/f/^c/e/ | %155
 B/d/B/d/A/^c/ | d/f/d/f/^c/e/ | B/d/B/d/A/^c/ | G/B/G/B/F/A/ | E^CD | GAA, | D2 a | ba z | Tgf z | %164
 ba z | Tgf z | Ted z | g>aTf- | f/e<Ted/ | d3 :: D/F/A/d/A/F/ | D2 z | D/F/A/d/F/D/ | ^C2 z | %174
 ^C/A,/C/E/A/C/ | D2 d | ^cdD | AA, z | AAA | A/G/F/G/A/B/ | AAA | A/B/^c/d/e/c/ | AAA | %183
 A/B/^c/d/e/f/ | g{g} Tf2 | e/d/^c/B/A | f/g/f/e/^d/^c/ | B2 z | B/f/b/B/^c/^d/ | eBE | %190
 e/f/g/f/e/d/ | ^cA z | A/e/a/A/B/^c/ | dAD | d/e/d/^c/B/A/ | G2 z | ^c/d/c/B/^A/^G/ | F2 z | %198
 B/^c/B/=A/=G/F/ | E2 z | E/D/E/F/G/E/ | F2 f | g/f/e/d/^c/B/ | ^A3 | g/f/e/d/^c/B/ | ^A3 | %206
 F/^G/^A/F/G/A/ | BB,/^C/D | EFF | B,B/c/B/A/ | G/D/B,/G,/B,/D/ | G2 z | G/D/B,/G,/D/G/ | F2 z | %214
 F/D/F/A/d/F/ | Gc/B/A/G/ | FGG, | Ddc | B/c/B/A/G/F/ | E2 z | A/B/A/G/F/E/ | D2 z | G/A/G/F/E/D/ | %223
 C2 z | CE^C | D2 z | G2 z | d2 z | G2 z | (D/A/)(f/A/).D/.A/ | (D/B/)(g/B/).D/.B/ | %231
 (D/c/)(a/c/).D/.c/ | (D/B/)(g/B/).D/.B/ | [Af]2 F | G/B/G/B/F/A/ | E/G/E/G/D/F/ | G/B/G/B/F/A/ | %237
 E/G/E/G/D/F/ | C/E/C/E/B,/D/ | A,FG | CDD | G,2 d | ed z | TcB z | ed z | TcB z | TAG z | c>dTB- | %248
 B/c<TAG/ | G3 :| %250
V:4
 x8 | x8 | x8 | x8 | x8 | x8 | x8 | x8 | x8 | x8 | x8 | x8 | x8 | x8 | x8 | x8 :: x8 | x8 | x8 | %19
 x8 | x8 | x8 | x8 | x8 | x8 | x8 | x8 | x8 | x8 | x8 | x8 | x8 | x8 | x8 | x8 | x8 | x8 | x8 | %38
 x8 | x8 | x8 | BBAA G,2 x x | x8 | x8 | x8 | x8 | x8 | x8 | x8 | x8 :|[M:6/8] G,3 G,3 | G,3 G,3 | %52
 G,3 G,3 | G,3 (B,2 G,) | G,3 G,3 | G,3 G,3 | G,3 G,3 |1 G,2 D B,3 :|2 G,2 D B,2 x |: x6 | x6 | %61
 x6 | x6 | x6 | x6 | x6 | D2 D D2 D | G,2 G, G,2 G, | D2 D D2 D | G,2 G, G,2 G, | D2 D D2 D | x6 | %72
 A2 A A2 A | A2 A A2 A | A2 x x3 | x6 | x6 | x6 | x6 | G,3 G,3 | G,3 G,3 | G,3 G,3 | G,3 (B,2 G,) | %83
 G,3 G,3 | G,3 G,3 | G,3 G,3 | G,3 x2 x | x6 | x6 | x6 | x6 | x6 | x6 | x6 | x6 | x6 | x6 | x6 | %98
 x6 | x6 | x6 | x6 | x6 | x6 | x6 | B,2 G, B,2 G, | C2 G, C2 G, | B,2 G, B,2 G, | C2 C C2 x | x6 | %110
 x6 | x6 | x3 x2 F | (F2 D) (F2 D) | (G2 D) (G2 D) | (F2 D) (F2 D) | x6 | x6 | x6 | x6 | x6 | %121
 G,3 G,3 | G,3 G,3 | G,3 G,3 | G,3 (B,2 G,) | G,3 G,3 | G,3 G,3 | G,3 G,3 |1 G,2 D B,2 x :|2 G,6 |] %130
[M:3/8] x3 | x3 | x3 | x3 | x3 | x3 | x3 | x3 | x3 | x3 | x3 | x3 | x3 | x3 | xxTx | x3 | x3 | x3 | %148
 x3 | x3 | x3 | x3 | x3 | x3 | x3 | x3 | x3 | x3 | x3 | x3 | x3 | x3 | x3 | x3 | x3 | x3 | x3 | %167
 x3 | x3 | x3 :: x3 | x3 | x3 | x3 | x3 | x3 | x3 | x3 | x3 | x3 | x3 | x3 | x3 | x3 | xxTx | x3 | %186
 x3 | x3 | x3 | x3 | x3 | x3 | x3 | x3 | x3 | x3 | x3 | x3 | x3 | x3 | x3 | x3 | x3 | x3 | x3 | %205
 x3 | x3 | x3 | x3 | x3 | x3 | x3 | x3 | x3 | x3 | x3 | x3 | x3 | x3 | x3 | x3 | x3 | x3 | x3 | %224
 x3 | x3 | x3 | x3 | x3 | x3 | x3 | x3 | x3 | D2 x | x3 | x3 | x3 | x3 | x3 | x3 | x3 | x3 | x3 | %243
 x3 | x3 | x3 | x3 | x3 | x3 | x3 :| %250

